{
  "compressionlevel": -1,
  "height": 5,
  "width": 8,
  "tilewidth": 32,
  "tileheight": 32,
  "orientation": "orthogonal",
  "renderorder": "right-down",
  "type": "map",
  "version": "1.10",
  "tiledversion": "1.10.2",
  "layers": [
    {
      "id": 1,
      "name": "ground",
      "type": "tilelayer",
      "visible": true,
      "opacity": 1,
      "width": 8,
      "height": 5,
      "x": 0,
      "y": 0,
      "data": [
        0,0,0,0,0,0,0,0,
        0,0,0,0,0,0,0,0,
        0,0,1,1,1,0,0,0,
        1,1,1,1,1,1,1,1,
        1,1,1,1,1,1,1,1
      ]
    },
    {
      "id": 2,
      "name": "entities",
      "type": "objectgroup",
      "visible": true,
      "opacity": 1,
      "x": 0,
      "y": 0,
      "objects": [
        {
          "id": 3,
          "name": "player_start",
          "type": "spawn",
          "x": 48,
          "y": 64,
          "width": 16,
          "height": 16,
          "visible": true
        },
        {
          "id": 4,
          "name": "coin",
          "type": "pickup",
          "x": 160,
          "y": 80,
          "width": 16,
          "height": 16,
          "visible": true
        }
      ]
    }
  ],
  "tilesets": []
}
